Origami/32x32/apps/datagrip.svg

<svg width="32" height="32" version="1" xmlns="http://www.w3.org/2000/svg">
 <path d="M 3.4003906,31 C 2.6247906,31 2,30.375209 2,29.599609 v -1 C 2,29.375209 2.6247906,30 3.4003906,30 H 16 28.599609 C 29.375209,30 30,29.375209 30,28.599609 v 1 C 30,30.375209 29.375209,31 28.599609,31 H 16 Z" style="opacity:.2"/>
 <path d="m16 2h-12.6c-0.7756 0-1.4 0.6244-1.4 1.4v12.6h14z" style="fill:#21d789"/>
 <path d="m16 2h12.6c0.7756 0 1.4 0.6244 1.4 1.4v12.6h-14z" style="fill:#cf4f8c"/>
 <path d="m16 30h-12.6c-0.7756 0-1.4-0.6244-1.4-1.4v-12.6h14z" style="fill:#2086e7"/>
 <path d="m16 30h12.6c0.7756 0 1.4-0.6244 1.4-1.4v-12.6h-14z" style="fill:#6655e4"/>
 <path d="M 3.4003906 2 C 2.6247906 2 2 2.6247906 2 3.4003906 L 2 4.4003906 C 2 3.6247906 2.6247906 3 3.4003906 3 L 16 3 L 28.599609 3 C 29.375209 3 30 3.6247906 30 4.4003906 L 30 3.4003906 C 30 2.6247906 29.375209 2 28.599609 2 L 16 2 L 3.4003906 2 z" style="fill:#ffffff;opacity:.2"/>
 <rect x="6" y="6" width="20" height="20" style="fill:#3f3f3f"/>
 <path d="m9.0002425 23.9999h7.9999995" style="fill:none;opacity:.2;stroke-linecap:round;stroke-width:2;stroke:#000000"/>
 <path d="m9.0002425 23h7.9999995" style="fill:none;stroke-linecap:round;stroke-width:2;stroke:#ffffff"/>
 <path d="m9.0143405 18.006171s4.0437825 0.350249 3.9999995-3.999999c-0.04378-4.3502631-3.9999995-4.000002-3.9999995-4.000002m-0.014098 7.993587v-7.9999981" style="fill:none;opacity:.2;stroke-linecap:round;stroke-linejoin:bevel;stroke-width:1.9999999;stroke:#000000"/>
 <path d="m9.0143405 17.006271s4.0437825 0.350249 3.9999995-3.999999c-0.04378-4.3502631-3.9999995-4.0000021-3.9999995-4.0000021m-0.014098 7.9935871v-7.9999981" style="fill:none;stroke-linecap:round;stroke-linejoin:bevel;stroke-width:1.9999999;stroke:#ffffff"/>
 <path d="m20.000242 14.999757h1.999998m-0.999999 0s0.490904 3-2.000001 3c-1.999998 0-1.999998-2.000001-1.999998-4.000002 0-1.999998 0-3.9999991 1.999998-3.9999991 2.000001 0 1.992378 0.9999991 1.992378 0.9999991" style="fill:none;opacity:.2;stroke-linecap:round;stroke-linejoin:bevel;stroke-width:1.9999999;stroke:#000000"/>
 <path d="m20.000242 13.999857h1.999998m-0.999999 0s0.490904 3-2.000001 3c-1.999998 0-1.999998-2.000001-1.999998-4.000002 0-1.999998 0-3.9999991 1.999998-3.9999991 2.000001 0 1.992378 0.999999 1.992378 0.999999" style="fill:none;stroke-linecap:round;stroke-linejoin:bevel;stroke-width:1.9999999;stroke:#ffffff"/>
</svg>

<svg xmlns="http://www.w3.org/2000/svg" width="32" height="32" version="1">
 <path style="opacity:0.2" d="M 3.4003906,31 C 2.6247906,31 2,30.375209 2,29.599609 v -1 C 2,29.375209 2.6247906,30 3.4003906,30 H 16 28.599609 C 29.375209,30 30,29.375209 30,28.599609 v 1 C 30,30.375209 29.375209,31 28.599609,31 H 16 Z"/>
 <path style="fill:#21d789" d="M 16,2 H 3.4 C 2.6244,2 2,2.6244 2,3.4 V 16 h 14 z"/>
 <path style="fill:#cf4f8c" d="M 16,2 H 28.6 C 29.3756,2 30,2.6244 30,3.4 V 16 H 16 Z"/>
 <path style="fill:#2086e7" d="M 16,30 H 3.4 C 2.6244,30 2,29.3756 2,28.6 V 16 h 14 z"/>
 <path style="fill:#6655e4" d="M 16,30 H 28.6 C 29.3756,30 30,29.3756 30,28.6 V 16 H 16 Z"/>
 <path style="fill:#ffffff;opacity:0.2" d="M 3.4003906 2 C 2.6247906 2 2 2.6247906 2 3.4003906 L 2 4.4003906 C 2 3.6247906 2.6247906 3 3.4003906 3 L 16 3 L 28.599609 3 C 29.375209 3 30 3.6247906 30 4.4003906 L 30 3.4003906 C 30 2.6247906 29.375209 2 28.599609 2 L 16 2 L 3.4003906 2 z"/>
 <rect style="fill:#3f3f3f" width="20" height="20" x="6" y="6"/>
 <path style="opacity:0.2;fill:none;stroke:#000000;stroke-width:2;stroke-linecap:round" d="M 9.0002425,23.9999 H 17.000242"/>
 <path style="fill:none;stroke:#ffffff;stroke-width:2;stroke-linecap:round" d="M 9.0002425,23 H 17.000242"/>
 <path style="opacity:0.2;fill:none;stroke:#000000;stroke-width:1.99999988;stroke-linecap:round;stroke-linejoin:bevel" d="m 9.0143405,18.006171 c 0,0 4.0437825,0.350249 3.9999995,-3.999999 C 12.97056,9.6559089 9.0143405,10.00617 9.0143405,10.00617 m -0.014098,7.993587 V 9.9997589"/>
 <path style="fill:none;stroke:#ffffff;stroke-width:1.99999988;stroke-linecap:round;stroke-linejoin:bevel" d="m 9.0143405,17.006271 c 0,0 4.0437825,0.350249 3.9999995,-3.999999 C 12.97056,8.6560089 9.0143405,9.0062699 9.0143405,9.0062699 M 9.0002425,16.999857 V 8.9998589"/>
 <path style="opacity:0.2;fill:none;stroke:#000000;stroke-width:1.99999988;stroke-linecap:round;stroke-linejoin:bevel" d="m 20.000242,14.999757 h 1.999998 m -0.999999,0 c 0,0 0.490904,3 -2.000001,3 -1.999998,0 -1.999998,-2.000001 -1.999998,-4.000002 0,-1.999998 0,-3.9999991 1.999998,-3.9999991 2.000001,0 1.992378,0.9999991 1.992378,0.9999991"/>
 <path style="fill:none;stroke:#ffffff;stroke-width:1.99999988;stroke-linecap:round;stroke-linejoin:bevel" d="m 20.000242,13.999857 h 1.999998 m -0.999999,0 c 0,0 0.490904,3 -2.000001,3 -1.999998,0 -1.999998,-2.000001 -1.999998,-4.000002 0,-1.999998 0,-3.9999991 1.999998,-3.9999991 2.000001,0 1.992378,0.999999 1.992378,0.999999"/>
</svg>
